mimes/48/image-x-ico.svg

<?xml version="1.0" encoding="UTF-8" standalone="no"?>
<!-- Created with Inkscape (http://www.inkscape.org/) -->

<svg
   xmlns:svg="http://www.w3.org/2000/svg"
   xmlns="http://www.w3.org/2000/svg"
   xmlns:xlink="http://www.w3.org/1999/xlink"
   version="1.0"
   width="48"
   height="48"
   id="svg2453">
  <defs
     id="defs2455">
    <linearGradient
       id="linearGradient3213">
      <stop
         id="stop3215"
         style="stop-color:white;stop-opacity:1"
         offset="0" />
      <stop
         id="stop3217"
         style="stop-color:white;stop-opacity:0"
         offset="1" />
    </linearGradient>
    <linearGradient
       x1="19.565496"
       y1="33.997028"
       x2="19.565496"
       y2="38.449821"
       id="linearGradient3219"
       xlink:href="#linearGradient3213"
       gradientUnits="userSpaceOnUse"
       gradientTransform="translate(0,-1.0214949)" />
    <radialGradient
       cx="605.71429"
       cy="486.64789"
       r="117.14286"
       fx="605.71429"
       fy="486.64789"
       id="radialGradient19613"
       xlink:href="#linearGradient5060"
       gradientUnits="userSpaceOnUse"
       gradientTransform="matrix(0.02891661,0,0,0.01235294,26.973101,38.470848)" />
    <linearGradient
       id="linearGradient5060">
      <stop
         id="stop5062"
         style="stop-color:black;stop-opacity:1"
         offset="0" />
      <stop
         id="stop5064"
         style="stop-color:black;stop-opacity:0"
         offset="1" />
    </linearGradient>
    <radialGradient
       cx="605.71429"
       cy="486.64789"
       r="117.14286"
       fx="605.71429"
       fy="486.64789"
       id="radialGradient19616"
       xlink:href="#linearGradient5060"
       gradientUnits="userSpaceOnUse"
       gradientTransform="matrix(-0.0289166,0,0,0.01235294,21.026894,38.470848)" />
    <linearGradient
       id="linearGradient5048">
      <stop
         id="stop5050"
         style="stop-color:black;stop-opacity:0"
         offset="0" />
      <stop
         id="stop5056"
         style="stop-color:black;stop-opacity:1"
         offset="0.5" />
      <stop
         id="stop5052"
         style="stop-color:black;stop-opacity:0"
         offset="1" />
    </linearGradient>
    <linearGradient
       x1="302.85715"
       y1="366.64789"
       x2="302.85715"
       y2="609.50507"
       id="linearGradient19619"
       xlink:href="#linearGradient5048"
       gradientUnits="userSpaceOnUse"
       gradientTransform="matrix(0.08449704,0,0,0.01235294,-6.5396456,38.470822)" />
    <linearGradient
       id="linearGradient259-942">
      <stop
         id="stop3802"
         style="stop-color:white;stop-opacity:1"
         offset="0" />
      <stop
         id="stop3804"
         style="stop-color:#e0e0e0;stop-opacity:1"
         offset="1" />
    </linearGradient>
    <linearGradient
       x1="108.26451"
       y1="110.28094"
       x2="25.817675"
       y2="14.029031"
       id="linearGradient2447"
       xlink:href="#linearGradient259-942"
       gradientUnits="userSpaceOnUse"
       gradientTransform="matrix(0.5066363,0,0,0.3512482,-58.338079,-49.085984)" />
    <linearGradient
       id="linearGradient3610-302">
      <stop
         id="stop3796"
         style="stop-color:#333;stop-opacity:1"
         offset="0" />
      <stop
         id="stop3798"
         style="stop-color:#292929;stop-opacity:1"
         offset="1" />
    </linearGradient>
    <linearGradient
       x1="-24.032034"
       y1="-13.090545"
       x2="-24.097931"
       y2="-40.163883"
       id="linearGradient2444"
       xlink:href="#linearGradient3610-302"
       gradientUnits="userSpaceOnUse"
       gradientTransform="matrix(1.1142851,0,0,1.1111113,2.7514431,3.5103428)" />
    <linearGradient
       id="linearGradient4157-401-351">
      <stop
         id="stop3790"
         style="stop-color:#262626;stop-opacity:1"
         offset="0" />
      <stop
         id="stop3792"
         style="stop-color:#828282;stop-opacity:1"
         offset="1" />
    </linearGradient>
    <linearGradient
       x1="28.938274"
       y1="17.33289"
       x2="105.36545"
       y2="92.823723"
       id="linearGradient2442"
       xlink:href="#linearGradient4157-401-351"
       gradientUnits="userSpaceOnUse"
       gradientTransform="matrix(0.4908393,0,0,0.3803351,-57.357124,-48.338393)" />
  </defs>
  <g
     id="layer1">
    <g
       id="g3257"
       style="opacity:0.4">
      <rect
         width="40.799999"
         height="2.9999998"
         x="3.5999999"
         y="43"
         id="rect2879"
         style="fill:url(#linearGradient19619);fill-opacity:1;fill-rule:nonzero;stroke:none;stroke-width:1;marker:none;visibility:visible;display:inline;overflow:visible" />
      <path
         d="m 3.6,43.00013 c 0,0 0,2.999835 0,2.999835 C 2.1108662,46.005612 0,45.327854 0,44.499854 0,43.671856 1.6617608,43.000131 3.6,43.00013 z"
         id="path2881"
         style="fill:url(#radialGradient19616);fill-opacity:1;fill-rule:nonzero;stroke:none;stroke-width:1;marker:none;visibility:visible;display:inline;overflow:visible" />
      <path
         d="m 44.4,43.00013 c 0,0 0,2.999835 0,2.999835 1.489133,0.0056 3.6,-0.672111 3.6,-1.500111 0,-0.827998 -1.661761,-1.499723 -3.6,-1.499724 z"
         id="path2883"
         style="fill:url(#radialGradient19613);fill-opacity:1;fill-rule:nonzero;stroke:none;stroke-width:1;marker:none;visibility:visible;display:inline;overflow:visible" />
    </g>
    <rect
       width="44.965565"
       height="35.922085"
       x="-46.457321"
       y="-44.502605"
       transform="matrix(-0.9999985,0.00173317,-9.6052603e-4,-0.9999995,0,0)"
       id="rect3580"
       style="fill:url(#linearGradient2447);fill-opacity:1;stroke:#c1c1c1;stroke-width:0.99999994;stroke-linecap:round;stroke-linejoin:miter;stroke-miterlimit:4;stroke-opacity:0.96862745;stroke-dasharray:none" />
    <rect
       width="38.927383"
       height="29.853907"
       rx="0"
       ry="0"
       x="-43.528763"
       y="-41.517406"
       transform="matrix(-0.9999929,0.00375523,0.00244093,-0.999997,0,0)"
       id="rect3582"
       style="fill:url(#linearGradient2442);fill-opacity:1;stroke:url(#linearGradient2444);stroke-width:1.00000966;stroke-linecap:round;stroke-linejoin:miter;stroke-miterlimit:4;stroke-opacity:1;stroke-dasharray:none" />
  </g>
  <path
     d="m 10.03125,20.997028 c 0,4 0,8 0,12 0.380583,0 0.775667,0 1.15625,0 0,-4 0,-8 0,-12 -0.380583,0 -0.775667,0 -1.15625,0 z m 9.34375,0 c -1.63973,0.130139 -3.202204,0.858014 -4.25,2.15625 -2.288615,2.627943 -1.590663,7.204819 1.4375,8.96875 2.643828,1.516796 6.458765,1.073759 8.375,-1.40625 -0.300324,-0.227832 -0.605928,-0.459668 -0.90625,-0.6875 -1.642393,2.09101 -4.920614,2.502064 -7.0625,0.96875 -2.411566,-1.616143 -2.687041,-5.457987 -0.59375,-7.4375 2.065516,-2.087633 5.926538,-1.868577 7.65625,0.53125 0.300324,-0.230421 0.605926,-0.457078 0.90625,-0.6875 -1.247003,-1.763337 -3.454276,-2.573572 -5.5625,-2.40625 z m 12.75,0 c -1.173528,-0.0087 -2.340473,0.344713 -3.3125,1 -2.863286,1.828809 -3.519943,6.244774 -1.28125,8.8125 1.911242,2.454525 5.793448,2.915296 8.25,1.03125 1.840306,-1.318869 2.751609,-3.690574 2.34375,-5.90625 -0.410797,-2.838912 -3.147851,-5.054093 -6,-4.9375 z m -0.40625,1.125 c 0.156507,-0.01462 0.309712,-0.0029 0.46875,0 0.581657,-9.75e-4 1.175331,0.104733 1.71875,0.3125 2.110453,0.732399 3.439987,3.020681 3.09375,5.21875 -0.218092,2.376977 -2.437837,4.289236 -4.8125,4.21875 -2.651699,0.100304 -5.011273,-2.360537 -4.8125,-5 -0.0224,-2.388567 1.996153,-4.53071 4.34375,-4.75 z"
     id="path2435"
     style="font-size:15.90679646px;font-style:normal;font-variant:normal;font-weight:normal;font-stretch:normal;fill:white;fill-opacity:1;stroke:none;font-family:Century Gothic;-inkscape-font-specification:Century Gothic" />
  <path
     d="m 10.03125,44.978505 c 0,-4 0,-8 0,-12 0.380583,0 0.775667,0 1.15625,0 0,4 0,8 0,12 -0.380583,0 -0.775667,0 -1.15625,0 z m 9.34375,0 c -1.63973,-0.130139 -3.202204,-0.858014 -4.25,-2.15625 -2.288615,-2.627943 -1.590663,-7.204819 1.4375,-8.96875 2.643828,-1.516796 6.458765,-1.073759 8.375,1.40625 -0.300324,0.227832 -0.605928,0.459668 -0.90625,0.6875 -1.642393,-2.09101 -4.920614,-2.502064 -7.0625,-0.96875 -2.411566,1.616143 -2.687041,5.457987 -0.59375,7.4375 2.065516,2.087633 5.926538,1.868577 7.65625,-0.53125 0.300324,0.230421 0.605926,0.457078 0.90625,0.6875 -1.247003,1.763337 -3.454276,2.573572 -5.5625,2.40625 z m 12.75,0 c -1.173528,0.0087 -2.340473,-0.344713 -3.3125,-1 -2.863286,-1.828809 -3.519943,-6.244774 -1.28125,-8.8125 1.911242,-2.454525 5.793448,-2.915296 8.25,-1.03125 1.840306,1.318869 2.751609,3.690574 2.34375,5.90625 -0.410797,2.838912 -3.147851,5.054093 -6,4.9375 z m -0.40625,-1.125 c 0.156507,0.01462 0.309712,0.0029 0.46875,0 0.581657,9.75e-4 1.175331,-0.104733 1.71875,-0.3125 2.110453,-0.732399 3.439987,-3.020681 3.09375,-5.21875 -0.218092,-2.376977 -2.437837,-4.289236 -4.8125,-4.21875 -2.651699,-0.100304 -5.011273,2.360537 -4.8125,5 -0.0224,2.388567 1.996153,4.53071 4.34375,4.75 z"
     id="path2441"
     style="font-size:15.90679646px;font-style:normal;font-variant:normal;font-weight:normal;font-stretch:normal;opacity:0.3;fill:url(#linearGradient3219);fill-opacity:1;stroke:none;font-family:Century Gothic;-inkscape-font-specification:Century Gothic" />
</svg>

<?xml version="1.0" encoding="UTF-8" standalone="no"?>
<!-- Created with Inkscape (http://www.inkscape.org/) -->
<svg
   xmlns:dc="http://purl.org/dc/elements/1.1/"
   xmlns:cc="http://creativecommons.org/ns#"
   xmlns:rdf="http://www.w3.org/1999/02/22-rdf-syntax-ns#"
   xmlns:svg="http://www.w3.org/2000/svg"
   xmlns="http://www.w3.org/2000/svg"
   xmlns:xlink="http://www.w3.org/1999/xlink"
   xmlns:sodipodi="http://sodipodi.sourceforge.net/DTD/sodipodi-0.dtd"
   xmlns:inkscape="http://www.inkscape.org/namespaces/inkscape"
   version="1.0"
   width="48"
   height="48"
   id="svg2453"
   sodipodi:version="0.32"
   inkscape:version="0.46"
   sodipodi:docname="image-x-ico.svg"
   inkscape:output_extension="org.inkscape.output.svg.inkscape">
  <metadata
     id="metadata40">
    <rdf:RDF>
      <cc:Work
         rdf:about="">
        <dc:format>image/svg+xml</dc:format>
        <dc:type
           rdf:resource="http://purl.org/dc/dcmitype/StillImage" />
      </cc:Work>
    </rdf:RDF>
  </metadata>
  <sodipodi:namedview
     inkscape:window-height="711"
     inkscape:window-width="640"
     inkscape:pageshadow="2"
     inkscape:pageopacity="0.0"
     guidetolerance="10.0"
     gridtolerance="10.0"
     objecttolerance="10.0"
     borderopacity="1.0"
     bordercolor="#666666"
     pagecolor="#ffffff"
     id="base"
     showgrid="false"
     inkscape:zoom="7.3362329"
     inkscape:cx="24"
     inkscape:cy="13.700287"
     inkscape:window-x="798"
     inkscape:window-y="24"
     inkscape:current-layer="svg2453" />
  <defs
     id="defs2455">
    <linearGradient
       id="linearGradient3213">
      <stop
         id="stop3215"
         style="stop-color:#ffffff;stop-opacity:1"
         offset="0" />
      <stop
         id="stop3217"
         style="stop-color:#ffffff;stop-opacity:0"
         offset="1" />
    </linearGradient>
    <linearGradient
       x1="19.565496"
       y1="33.997028"
       x2="19.565496"
       y2="38.449821"
       id="linearGradient3219"
       xlink:href="#linearGradient3213"
       gradientUnits="userSpaceOnUse"
       gradientTransform="translate(0,-1.0214949)" />
    <radialGradient
       cx="605.71429"
       cy="486.64789"
       r="117.14286"
       fx="605.71429"
       fy="486.64789"
       id="radialGradient19613"
       xlink:href="#linearGradient5060"
       gradientUnits="userSpaceOnUse"
       gradientTransform="matrix(2.891661e-2,0,0,1.2352939e-2,26.973101,38.470848)" />
    <linearGradient
       id="linearGradient5060">
      <stop
         id="stop5062"
         style="stop-color:#000000;stop-opacity:1"
         offset="0" />
      <stop
         id="stop5064"
         style="stop-color:#000000;stop-opacity:0"
         offset="1" />
    </linearGradient>
    <radialGradient
       cx="605.71429"
       cy="486.64789"
       r="117.14286"
       fx="605.71429"
       fy="486.64789"
       id="radialGradient19616"
       xlink:href="#linearGradient5060"
       gradientUnits="userSpaceOnUse"
       gradientTransform="matrix(-2.8916604e-2,0,0,1.2352939e-2,21.026894,38.470848)" />
    <linearGradient
       id="linearGradient5048">
      <stop
         id="stop5050"
         style="stop-color:#000000;stop-opacity:0"
         offset="0" />
      <stop
         id="stop5056"
         style="stop-color:#000000;stop-opacity:1"
         offset="0.5" />
      <stop
         id="stop5052"
         style="stop-color:#000000;stop-opacity:0"
         offset="1" />
    </linearGradient>
    <linearGradient
       x1="302.85715"
       y1="366.64789"
       x2="302.85715"
       y2="609.50507"
       id="linearGradient19619"
       xlink:href="#linearGradient5048"
       gradientUnits="userSpaceOnUse"
       gradientTransform="matrix(8.4497041e-2,0,0,1.2352939e-2,-6.5396456,38.470822)" />
    <linearGradient
       id="linearGradient259-942">
      <stop
         id="stop3802"
         style="stop-color:#ffffff;stop-opacity:1"
         offset="0" />
      <stop
         id="stop3804"
         style="stop-color:#e0e0e0;stop-opacity:1"
         offset="1" />
    </linearGradient>
    <linearGradient
       x1="108.26451"
       y1="110.28094"
       x2="25.817675"
       y2="14.029031"
       id="linearGradient2447"
       xlink:href="#linearGradient259-942"
       gradientUnits="userSpaceOnUse"
       gradientTransform="matrix(0.5066363,0,0,0.3512482,-58.338079,-49.085984)" />
    <linearGradient
       id="linearGradient3610-302">
      <stop
         id="stop3796"
         style="stop-color:#333333;stop-opacity:1"
         offset="0" />
      <stop
         id="stop3798"
         style="stop-color:#292929;stop-opacity:1"
         offset="1" />
    </linearGradient>
    <linearGradient
       x1="-24.032034"
       y1="-13.090545"
       x2="-24.097931"
       y2="-40.163883"
       id="linearGradient2444"
       xlink:href="#linearGradient3610-302"
       gradientUnits="userSpaceOnUse"
       gradientTransform="matrix(1.1142851,0,0,1.1111113,2.7514431,3.5103428)" />
    <linearGradient
       id="linearGradient4157-401-351">
      <stop
         id="stop3790"
         style="stop-color:#262626;stop-opacity:1"
         offset="0" />
      <stop
         id="stop3792"
         style="stop-color:#828282;stop-opacity:1"
         offset="1" />
    </linearGradient>
    <linearGradient
       x1="28.938274"
       y1="17.33289"
       x2="105.36545"
       y2="92.823723"
       id="linearGradient2442"
       xlink:href="#linearGradient4157-401-351"
       gradientUnits="userSpaceOnUse"
       gradientTransform="matrix(0.4908393,0,0,0.3803351,-57.357124,-48.338393)" />
  </defs>
  <g
     id="layer1">
    <g
       id="g3257"
       style="opacity:0.4">
      <rect
         width="40.799999"
         height="2.9999998"
         x="3.5999999"
         y="43"
         id="rect2879"
         style="opacity:1;fill:url(#linearGradient19619);fill-opacity:1;fill-rule:nonzero;stroke:none;stroke-width:1;stroke-linecap:round;stroke-linejoin:miter;marker:none;marker-start:none;marker-mid:none;marker-end:none;stroke-miterlimit:4;stroke-dasharray:none;stroke-dashoffset:0;stroke-opacity:1;visibility:visible;display:inline;overflow:visible" />
      <path
         d="M 3.6,43.00013 C 3.6,43.00013 3.6,45.999965 3.6,45.999965 C 2.1108662,46.005612 7.1054274e-15,45.327854 7.1054274e-15,44.499854 C 7.1054274e-15,43.671856 1.6617608,43.000131 3.6,43.00013 z"
         id="path2881"
         style="opacity:1;fill:url(#radialGradient19616);fill-opacity:1;fill-rule:nonzero;stroke:none;stroke-width:1;stroke-linecap:round;stroke-linejoin:miter;marker:none;marker-start:none;marker-mid:none;marker-end:none;stroke-miterlimit:4;stroke-dasharray:none;stroke-dashoffset:0;stroke-opacity:1;visibility:visible;display:inline;overflow:visible" />
      <path
         d="M 44.4,43.00013 C 44.4,43.00013 44.4,45.999965 44.4,45.999965 C 45.889133,46.005612 48,45.327854 48,44.499854 C 48,43.671856 46.338239,43.000131 44.4,43.00013 z"
         id="path2883"
         style="opacity:1;fill:url(#radialGradient19613);fill-opacity:1;fill-rule:nonzero;stroke:none;stroke-width:1;stroke-linecap:round;stroke-linejoin:miter;marker:none;marker-start:none;marker-mid:none;marker-end:none;stroke-miterlimit:4;stroke-dasharray:none;stroke-dashoffset:0;stroke-opacity:1;visibility:visible;display:inline;overflow:visible" />
    </g>
    <rect
       width="44.965565"
       height="35.922085"
       x="-46.457321"
       y="-44.502605"
       transform="matrix(-0.9999985,1.7331702e-3,-9.6052603e-4,-0.9999995,0,0)"
       id="rect3580"
       style="fill:url(#linearGradient2447);fill-opacity:1;stroke:#c1c1c1;stroke-width:0.99999994;stroke-linecap:round;stroke-linejoin:miter;stroke-miterlimit:4;stroke-dasharray:none;stroke-opacity:0.96862745" />
    <rect
       width="38.927383"
       height="29.853907"
       rx="0"
       ry="0"
       x="-43.528763"
       y="-41.517406"
       transform="matrix(-0.9999929,3.7552317e-3,2.4409349e-3,-0.999997,0,0)"
       id="rect3582"
       style="fill:url(#linearGradient2442);fill-opacity:1;stroke:url(#linearGradient2444);stroke-width:1.00000966;stroke-linecap:round;stroke-linejoin:miter;stroke-miterlimit:4;stroke-dasharray:none;stroke-opacity:1" />
  </g>
  <path
     d="M 10.03125,20.997028 C 10.03125,24.997028 10.03125,28.997028 10.03125,32.997028 C 10.411833,32.997028 10.806917,32.997028 11.1875,32.997028 C 11.1875,28.997028 11.1875,24.997028 11.1875,20.997028 C 10.806917,20.997028 10.411833,20.997028 10.03125,20.997028 z M 19.375,20.997028 C 17.73527,21.127167 16.172796,21.855042 15.125,23.153278 C 12.836385,25.781221 13.534337,30.358097 16.5625,32.122028 C 19.206328,33.638824 23.021265,33.195787 24.9375,30.715778 C 24.637176,30.487946 24.331572,30.25611 24.03125,30.028278 C 22.388857,32.119288 19.110636,32.530342 16.96875,30.997028 C 14.557184,29.380885 14.281709,25.539041 16.375,23.559528 C 18.440516,21.471895 22.301538,21.690951 24.03125,24.090778 C 24.331574,23.860357 24.637176,23.6337 24.9375,23.403278 C 23.690497,21.639941 21.483224,20.829706 19.375,20.997028 z M 32.125,20.997028 C 30.951472,20.988334 29.784527,21.341741 28.8125,21.997028 C 25.949214,23.825837 25.292557,28.241802 27.53125,30.809528 C 29.442492,33.264053 33.324698,33.724824 35.78125,31.840778 C 37.621556,30.521909 38.532859,28.150204 38.125,25.934528 C 37.714203,23.095616 34.977149,20.880435 32.125,20.997028 z M 31.71875,22.122028 C 31.875257,22.107409 32.028462,22.119121 32.1875,22.122028 C 32.769157,22.121053 33.362831,22.226761 33.90625,22.434528 C 36.016703,23.166927 37.346237,25.455209 37,27.653278 C 36.781908,30.030255 34.562163,31.942514 32.1875,31.872028 C 29.535801,31.972332 27.176227,29.511491 27.375,26.872028 C 27.352601,24.483461 29.371153,22.341318 31.71875,22.122028 z"
     id="path2435"
     style="font-size:15.90679646px;font-style:normal;font-variant:normal;font-weight:normal;font-stretch:normal;fill:#ffffff;fill-opacity:1;stroke:none;stroke-width:1px;stroke-linecap:butt;stroke-linejoin:miter;stroke-opacity:1;font-family:Century Gothic;-inkscape-font-specification:Century Gothic" />
  <path
     d="M 10.03125,44.978505 C 10.03125,40.978505 10.03125,36.978505 10.03125,32.978505 C 10.411833,32.978505 10.806917,32.978505 11.1875,32.978505 C 11.1875,36.978505 11.1875,40.978505 11.1875,44.978505 C 10.806917,44.978505 10.411833,44.978505 10.03125,44.978505 z M 19.375,44.978505 C 17.73527,44.848366 16.172796,44.120491 15.125,42.822255 C 12.836385,40.194312 13.534337,35.617436 16.5625,33.853505 C 19.206328,32.336709 23.021265,32.779746 24.9375,35.259755 C 24.637176,35.487587 24.331572,35.719423 24.03125,35.947255 C 22.388857,33.856245 19.110636,33.445191 16.96875,34.978505 C 14.557184,36.594648 14.281709,40.436492 16.375,42.416005 C 18.440516,44.503638 22.301538,44.284582 24.03125,41.884755 C 24.331574,42.115176 24.637176,42.341833 24.9375,42.572255 C 23.690497,44.335592 21.483224,45.145827 19.375,44.978505 z M 32.125,44.978505 C 30.951472,44.987199 29.784527,44.633792 28.8125,43.978505 C 25.949214,42.149696 25.292557,37.733731 27.53125,35.166005 C 29.442492,32.71148 33.324698,32.250709 35.78125,34.134755 C 37.621556,35.453624 38.532859,37.825329 38.125,40.041005 C 37.714203,42.879917 34.977149,45.095098 32.125,44.978505 z M 31.71875,43.853505 C 31.875257,43.868124 32.028462,43.856412 32.1875,43.853505 C 32.769157,43.85448 33.362831,43.748772 33.90625,43.541005 C 36.016703,42.808606 37.346237,40.520324 37,38.322255 C 36.781908,35.945278 34.562163,34.033019 32.1875,34.103505 C 29.535801,34.003201 27.176227,36.464042 27.375,39.103505 C 27.352601,41.492072 29.371153,43.634215 31.71875,43.853505 z"
     id="path2441"
     style="font-size:15.90679646px;font-style:normal;font-variant:normal;font-weight:normal;font-stretch:normal;opacity:0.3;fill:url(#linearGradient3219);fill-opacity:1;stroke:none;stroke-width:1px;stroke-linecap:butt;stroke-linejoin:miter;stroke-opacity:1;font-family:Century Gothic;-inkscape-font-specification:Century Gothic" />
</svg>
